the-plus-addons-for-block-editor/assets/images/coupon-code/code-5.svg

<svg xmlns="http://www.w3.org/2000/svg" width="1000" height="700" fill="none" viewBox="0 0 1000 700"><path fill="#FCFCFF" d="M0 0h1000v700H0z"/><rect width="350" height="87" x="325" y="315" fill="#888" rx="5"/><mask id="a" width="350" height="87" x="325" y="315" maskUnits="userSpaceOnUse" style="mask-type:alpha"><rect width="350" height="87" x="325" y="315" fill="#8072FC" rx="5"/></mask><g mask="url(#a)"><path fill="#D5D5D5" d="m688.366 299.884-11.657 43.344L645 311.46l43.366-11.576Z"/><g filter="url(#b)"><path fill="#F2F2F2" d="M656.621 344.503a9.999 9.999 0 0 1-9.896-9.906l-.202-21.624 31.723 31.753-21.625-.223Z"/></g><path fill="#fff" d="M383.879 373.295c-1.967 0-3.737-.337-5.31-1.011-1.574-.703-2.81-1.686-3.709-2.95-.899-1.265-1.349-2.74-1.349-4.425h5.142c.112 1.264.604 2.303 1.475 3.118.899.815 2.149 1.222 3.751 1.222 1.657 0 2.95-.393 3.877-1.18.927-.814 1.39-1.854 1.39-3.118 0-.984-.295-1.784-.885-2.402-.562-.619-1.278-1.096-2.149-1.433-.843-.337-2.023-.703-3.54-1.096-1.91-.506-3.47-1.011-4.678-1.517-1.18-.534-2.191-1.349-3.034-2.444-.843-1.096-1.264-2.557-1.264-4.383 0-1.686.421-3.161 1.264-4.425.843-1.265 2.023-2.234 3.54-2.908 1.517-.674 3.273-1.012 5.268-1.012 2.837 0 5.155.717 6.953 2.15 1.827 1.404 2.838 3.343 3.035 5.815h-5.31c-.085-1.067-.59-1.98-1.517-2.739-.928-.758-2.15-1.138-3.667-1.138-1.377 0-2.5.351-3.371 1.054-.871.702-1.307 1.714-1.307 3.034 0 .899.267 1.644.801 2.234.562.562 1.264 1.011 2.107 1.348.843.337 1.995.703 3.456 1.096 1.938.534 3.512 1.068 4.72 1.601 1.236.534 2.276 1.363 3.118 2.487.871 1.096 1.307 2.571 1.307 4.425 0 1.489-.408 2.894-1.222 4.214-.787 1.321-1.953 2.388-3.498 3.203-1.517.787-3.315 1.18-5.394 1.18Zm39.172-29.584V373h-4.804v-12.811h-13.781V373h-4.804v-29.289h4.804v12.558h13.781v-12.558h4.804Zm19.684 29.584c-2.725 0-5.24-.632-7.544-1.896-2.275-1.293-4.087-3.077-5.436-5.353-1.32-2.303-1.981-4.888-1.981-7.754 0-2.866.661-5.436 1.981-7.712 1.349-2.276 3.161-4.046 5.436-5.31 2.304-1.292 4.819-1.939 7.544-1.939 2.753 0 5.268.647 7.544 1.939a13.908 13.908 0 0 1 5.436 5.31c1.32 2.276 1.981 4.846 1.981 7.712 0 2.866-.661 5.451-1.981 7.754a14.217 14.217 0 0 1-5.436 5.353c-2.276 1.264-4.791 1.896-7.544 1.896Zm0-4.172c1.939 0 3.666-.436 5.184-1.307 1.517-.899 2.697-2.163 3.54-3.792.871-1.658 1.306-3.569 1.306-5.732 0-2.163-.435-4.06-1.306-5.689-.843-1.63-2.023-2.88-3.54-3.751-1.518-.871-3.245-1.306-5.184-1.306s-3.666.435-5.184 1.306c-1.517.871-2.711 2.121-3.582 3.751-.843 1.629-1.264 3.526-1.264 5.689 0 2.163.421 4.074 1.264 5.732.871 1.629 2.065 2.893 3.582 3.792 1.518.871 3.245 1.307 5.184 1.307Zm57.828-25.412L491.881 373h-5.436l-6.153-22.167L473.76 373l-5.395.042-8.302-29.331h5.1l6.068 23.853 6.574-23.853h5.395l6.11 23.726 6.111-23.726h5.142Zm13.308 14.581c0-2.866.66-5.436 1.981-7.712 1.348-2.276 3.16-4.046 5.436-5.31 2.304-1.292 4.818-1.939 7.544-1.939 3.118 0 5.885.773 8.302 2.318 2.444 1.517 4.214 3.681 5.31 6.49h-5.774c-.758-1.545-1.812-2.697-3.161-3.455-1.348-.759-2.907-1.138-4.677-1.138-1.939 0-3.667.435-5.184 1.306-1.517.871-2.711 2.121-3.582 3.751-.843 1.629-1.264 3.526-1.264 5.689 0 2.163.421 4.06 1.264 5.689.871 1.63 2.065 2.894 3.582 3.793 1.517.871 3.245 1.307 5.184 1.307 1.77 0 3.329-.38 4.677-1.138 1.349-.759 2.403-1.911 3.161-3.456h5.774c-1.096 2.81-2.866 4.973-5.31 6.49-2.417 1.517-5.184 2.276-8.302 2.276-2.754 0-5.268-.632-7.544-1.897-2.276-1.292-4.088-3.076-5.436-5.352-1.321-2.275-1.981-4.846-1.981-7.712Zm47.555 15.003c-2.725 0-5.239-.632-7.543-1.896-2.276-1.293-4.088-3.077-5.437-5.353-1.32-2.303-1.98-4.888-1.98-7.754 0-2.866.66-5.436 1.98-7.712 1.349-2.276 3.161-4.046 5.437-5.31 2.304-1.292 4.818-1.939 7.543-1.939 2.754 0 5.268.647 7.544 1.939a13.902 13.902 0 0 1 5.436 5.31c1.321 2.276 1.981 4.846 1.981 7.712 0 2.866-.66 5.451-1.981 7.754a14.21 14.21 0 0 1-5.436 5.353c-2.276 1.264-4.79 1.896-7.544 1.896Zm0-4.172c1.939 0 3.667-.436 5.184-1.307 1.517-.899 2.697-2.163 3.54-3.792.871-1.658 1.306-3.569 1.306-5.732 0-2.163-.435-4.06-1.306-5.689-.843-1.63-2.023-2.88-3.54-3.751s-3.245-1.306-5.184-1.306c-1.938 0-3.666.435-5.183 1.306s-2.711 2.121-3.582 3.751c-.843 1.629-1.265 3.526-1.265 5.689 0 2.163.422 4.074 1.265 5.732.871 1.629 2.065 2.893 3.582 3.792 1.517.871 3.245 1.307 5.183 1.307Zm29.255-25.412c3.119 0 5.844.604 8.176 1.812 2.36 1.18 4.172 2.894 5.436 5.141 1.293 2.22 1.939 4.819 1.939 7.797 0 2.978-.646 5.563-1.939 7.754-1.264 2.191-3.076 3.877-5.436 5.057-2.332 1.152-5.057 1.728-8.176 1.728h-9.566v-29.289h9.566Zm0 25.37c3.428 0 6.055-.927 7.881-2.782 1.826-1.854 2.739-4.467 2.739-7.838 0-3.4-.913-6.055-2.739-7.965-1.826-1.911-4.453-2.866-7.881-2.866h-4.762v21.451h4.762Zm25.117-21.493v8.597h10.114v3.919h-10.114v8.977h11.378V373h-16.183v-29.331h16.183v3.919h-11.378Z"/></g><defs><filter id="b" width="35.723" height="36.753" x="644.523" y="312.973" color-interpolation-filters="sRGB" filterUnits="userSpaceOnUse"><feFlood flood-opacity="0" result="BackgroundImageFix"/><feColorMatrix in="SourceAlpha" result="hardAlpha" values="0 0 0 0 0 0 0 0 0 0 0 0 0 0 0 0 0 0 127 0"/><feOffset dy="3"/><feGaussianBlur stdDeviation="1"/><feComposite in2="hardAlpha" operator="out"/><feColorMatrix values="0 0 0 0 0 0 0 0 0 0 0 0 0 0 0 0 0 0 0.15 0"/><feBlend in2="BackgroundImageFix" result="effect1_dropShadow_5_978"/><feBlend in="SourceGraphic" in2="effect1_dropShadow_5_978" result="shape"/></filter></defs></svg>

<svg width="1000" height="700" viewBox="0 0 1000 700" fill="none" xmlns="http://www.w3.org/2000/svg">
<rect width="1000" height="700" fill="#FCFCFF"/>
<rect x="325" y="315" width="350" height="87" rx="5" fill="#888888"/>
<mask id="mask0_5_978" style="mask-type:alpha" maskUnits="userSpaceOnUse" x="325" y="315" width="350" height="87">
<rect x="325" y="315" width="350" height="87" rx="5" fill="#8072FC"/>
</mask>
<g mask="url(#mask0_5_978)">
<path d="M688.366 299.884L676.709 343.228L645 311.46L688.366 299.884Z" fill="#D5D5D5"/>
<g filter="url(#filter0_d_5_978)">
<path d="M656.621 344.503C651.175 344.447 646.775 340.043 646.725 334.597L646.523 312.973L678.246 344.726L656.621 344.503Z" fill="#F2F2F2"/>
</g>
<path d="M383.879 373.295C381.912 373.295 380.142 372.958 378.569 372.284C376.995 371.581 375.759 370.598 374.86 369.334C373.961 368.069 373.511 366.594 373.511 364.909H378.653C378.765 366.173 379.257 367.212 380.128 368.027C381.027 368.842 382.277 369.249 383.879 369.249C385.536 369.249 386.829 368.856 387.756 368.069C388.683 367.255 389.146 366.215 389.146 364.951C389.146 363.967 388.851 363.167 388.261 362.549C387.699 361.93 386.983 361.453 386.112 361.116C385.269 360.779 384.089 360.413 382.572 360.02C380.662 359.514 379.102 359.009 377.894 358.503C376.714 357.969 375.703 357.154 374.86 356.059C374.017 354.963 373.596 353.502 373.596 351.676C373.596 349.99 374.017 348.515 374.86 347.251C375.703 345.986 376.883 345.017 378.4 344.343C379.917 343.669 381.673 343.331 383.668 343.331C386.505 343.331 388.823 344.048 390.621 345.481C392.448 346.885 393.459 348.824 393.656 351.296H388.346C388.261 350.229 387.756 349.316 386.829 348.557C385.901 347.799 384.679 347.419 383.162 347.419C381.785 347.419 380.662 347.77 379.791 348.473C378.92 349.175 378.484 350.187 378.484 351.507C378.484 352.406 378.751 353.151 379.285 353.741C379.847 354.303 380.549 354.752 381.392 355.089C382.235 355.426 383.387 355.792 384.848 356.185C386.786 356.719 388.36 357.253 389.568 357.786C390.804 358.32 391.844 359.149 392.686 360.273C393.557 361.369 393.993 362.844 393.993 364.698C393.993 366.187 393.585 367.592 392.771 368.912C391.984 370.233 390.818 371.3 389.273 372.115C387.756 372.902 385.958 373.295 383.879 373.295ZM423.051 343.711V373H418.247V360.189H404.466V373H399.662V343.711H404.466V356.269H418.247V343.711H423.051ZM442.735 373.295C440.01 373.295 437.495 372.663 435.191 371.399C432.916 370.106 431.104 368.322 429.755 366.046C428.435 363.743 427.774 361.158 427.774 358.292C427.774 355.426 428.435 352.856 429.755 350.58C431.104 348.304 432.916 346.534 435.191 345.27C437.495 343.978 440.01 343.331 442.735 343.331C445.488 343.331 448.003 343.978 450.279 345.27C452.582 346.534 454.395 348.304 455.715 350.58C457.035 352.856 457.696 355.426 457.696 358.292C457.696 361.158 457.035 363.743 455.715 366.046C454.395 368.322 452.582 370.106 450.279 371.399C448.003 372.663 445.488 373.295 442.735 373.295ZM442.735 369.123C444.674 369.123 446.401 368.687 447.919 367.816C449.436 366.917 450.616 365.653 451.459 364.024C452.33 362.366 452.765 360.455 452.765 358.292C452.765 356.129 452.33 354.232 451.459 352.603C450.616 350.973 449.436 349.723 447.919 348.852C446.401 347.981 444.674 347.546 442.735 347.546C440.796 347.546 439.069 347.981 437.551 348.852C436.034 349.723 434.84 350.973 433.969 352.603C433.126 354.232 432.705 356.129 432.705 358.292C432.705 360.455 433.126 362.366 433.969 364.024C434.84 365.653 436.034 366.917 437.551 367.816C439.069 368.687 440.796 369.123 442.735 369.123ZM500.563 343.711L491.881 373H486.445L480.292 350.833L473.76 373L468.365 373.042L460.063 343.711H465.163L471.231 367.564L477.805 343.711H483.2L489.31 367.437L495.421 343.711H500.563ZM513.871 358.292C513.871 355.426 514.531 352.856 515.852 350.58C517.2 348.304 519.012 346.534 521.288 345.27C523.592 343.978 526.106 343.331 528.832 343.331C531.95 343.331 534.717 344.104 537.134 345.649C539.578 347.166 541.348 349.33 542.444 352.139H536.67C535.912 350.594 534.858 349.442 533.509 348.684C532.161 347.925 530.602 347.546 528.832 347.546C526.893 347.546 525.165 347.981 523.648 348.852C522.131 349.723 520.937 350.973 520.066 352.603C519.223 354.232 518.802 356.129 518.802 358.292C518.802 360.455 519.223 362.352 520.066 363.981C520.937 365.611 522.131 366.875 523.648 367.774C525.165 368.645 526.893 369.081 528.832 369.081C530.602 369.081 532.161 368.701 533.509 367.943C534.858 367.184 535.912 366.032 536.67 364.487H542.444C541.348 367.297 539.578 369.46 537.134 370.977C534.717 372.494 531.95 373.253 528.832 373.253C526.078 373.253 523.564 372.621 521.288 371.356C519.012 370.064 517.2 368.28 515.852 366.004C514.531 363.729 513.871 361.158 513.871 358.292ZM561.426 373.295C558.701 373.295 556.187 372.663 553.883 371.399C551.607 370.106 549.795 368.322 548.446 366.046C547.126 363.743 546.466 361.158 546.466 358.292C546.466 355.426 547.126 352.856 548.446 350.58C549.795 348.304 551.607 346.534 553.883 345.27C556.187 343.978 558.701 343.331 561.426 343.331C564.18 343.331 566.694 343.978 568.97 345.27C571.274 346.534 573.086 348.304 574.406 350.58C575.727 352.856 576.387 355.426 576.387 358.292C576.387 361.158 575.727 363.743 574.406 366.046C573.086 368.322 571.274 370.106 568.97 371.399C566.694 372.663 564.18 373.295 561.426 373.295ZM561.426 369.123C563.365 369.123 565.093 368.687 566.61 367.816C568.127 366.917 569.307 365.653 570.15 364.024C571.021 362.366 571.456 360.455 571.456 358.292C571.456 356.129 571.021 354.232 570.15 352.603C569.307 350.973 568.127 349.723 566.61 348.852C565.093 347.981 563.365 347.546 561.426 347.546C559.488 347.546 557.76 347.981 556.243 348.852C554.726 349.723 553.532 350.973 552.661 352.603C551.818 354.232 551.396 356.129 551.396 358.292C551.396 360.455 551.818 362.366 552.661 364.024C553.532 365.653 554.726 366.917 556.243 367.816C557.76 368.687 559.488 369.123 561.426 369.123ZM590.681 343.711C593.8 343.711 596.525 344.315 598.857 345.523C601.217 346.703 603.029 348.417 604.293 350.664C605.586 352.884 606.232 355.483 606.232 358.461C606.232 361.439 605.586 364.024 604.293 366.215C603.029 368.406 601.217 370.092 598.857 371.272C596.525 372.424 593.8 373 590.681 373H581.115V343.711H590.681ZM590.681 369.081C594.109 369.081 596.736 368.154 598.562 366.299C600.388 364.445 601.301 361.832 601.301 358.461C601.301 355.061 600.388 352.406 598.562 350.496C596.736 348.585 594.109 347.63 590.681 347.63H585.919V369.081H590.681ZM615.798 347.588V356.185H625.912V360.104H615.798V369.081H627.176V373H610.993V343.669H627.176V347.588H615.798Z" fill="white"/>
</g>
<defs>
<filter id="filter0_d_5_978" x="644.523" y="312.973" width="35.7229" height="36.7532" filterUnits="userSpaceOnUse" color-interpolation-filters="sRGB">
<feFlood flood-opacity="0" result="BackgroundImageFix"/>
<feColorMatrix in="SourceAlpha" type="matrix" values="0 0 0 0 0 0 0 0 0 0 0 0 0 0 0 0 0 0 127 0" result="hardAlpha"/>
<feOffset dy="3"/>
<feGaussianBlur stdDeviation="1"/>
<feComposite in2="hardAlpha" operator="out"/>
<feColorMatrix type="matrix" values="0 0 0 0 0 0 0 0 0 0 0 0 0 0 0 0 0 0 0.15 0"/>
<feBlend mode="normal" in2="BackgroundImageFix" result="effect1_dropShadow_5_978"/>
<feBlend mode="normal" in="SourceGraphic" in2="effect1_dropShadow_5_978" result="shape"/>
</filter>
</defs>
</svg>
